X: 1808
T: The King Of The Rath
M:6/8
L:1/8
B:O'Neill's 1808
Z:"Transcribed by Bob Safranek, rjs@gsp.org"
K:Gm
B2 d  dcB  | ABA  cA^F | GAG  G2 d  | dcB  cAF  |
B2 d  dcB  | ABA  cA^F | GAG  G2 d  | cA^F G3  :|
B2 B B2 d  | c2 c c2 e | d2 d d2 =e | f2 f f3   |
d2 d d2 e  | c2 c c2 d | B2 d dcB   | ABA  cBA  |
GAG  G2 d  | dcB  cAF  | BBB  B2 d  | ccc  c2 e |
ddd  d2 =e | fff  f3   | ddd  d2 e  | ccc  c2 d |
BBB  B2 d  | dcB  cA^F | GAG  G2 d  | cA^F G3   |]


